apps/scalable/chessx.svg

<svg width="48" version="1.1" height="48">
<g style="color:#000;text-rendering:auto;text-decoration-color:#000000;solid-color:#000000;stroke:none;fill-rule:evenodd;color-interpolation:sRGB;text-transform:none;text-indent:0;stroke-width:1.5;color-rendering:auto;line-height:normal;isolation:auto;white-space:normal;text-decoration-style:solid;text-align:start;shape-rendering:auto;mix-blend-mode:normal;image-rendering:auto;solid-opacity:1;font-family:sans-serif;text-decoration-line:none">
<path style="color-interpolation-filters:linearRGB;fill:#a46f4c" id="path14" d="m 11.0794,14.2222 0,17.1711 -1.9452,3.2411 c -0.420019,0.698224 0.08275,1.58762 0.897569,1.5878 h 27.9365 c 0.814821,-0.00018 1.31759,-0.889574 0.897569,-1.5878 l -1.9452,-3.2411 v -17.1711 z "/>
<path style="color-interpolation-filters:linearRGB;fill:#6d4a33;stroke-linejoin:round" id="path8" d="m 9.3333,34.127 c -0.578559,5.7e-05 -1.04756,0.46906 -1.04762,1.04762 v 5.5873 c 5.7e-05,0.578559 0.46906,1.04756 1.04762,1.04762 h 29.3333 c 0.578559,-5.7e-05 1.04756,-0.46906 1.04762,-1.04762 v -5.5873 c -5.8e-05,-0.578559 -0.46906,-1.04756 -1.04762,-1.04762 z "/>
</g>
<link rel="stylesheet" href="resource://abduction/browser.css"/>
<abduction-overlay/>
<g style="color:#000;text-rendering:auto;text-decoration-color:#000000;solid-color:#000000;stroke:none;fill-rule:evenodd;color-interpolation:sRGB;text-transform:none;text-indent:0;stroke-width:1.5;color-rendering:auto;line-height:normal;isolation:auto;white-space:normal;text-decoration-style:solid;text-align:start;shape-rendering:auto;mix-blend-mode:normal;image-rendering:auto;solid-opacity:1;font-family:sans-serif;text-decoration-line:none;stroke-linejoin:round">
<path style="color-interpolation-filters:linearRGB;fill:#966646" id="path6" d="m 5.1429,39.7143 c -0.57856,5.7e-05 -1.04756,0.469059 -1.04762,1.04762 v 4.19048 c 5.78e-05,0.578559 0.469059,1.04756 1.04762,1.04762 h 37.7143 c 0.578559,-5.7e-05 1.04756,-0.46906 1.04762,-1.04762 v -4.19048 c -5.7e-05,-0.57856 -0.46906,-1.04756 -1.04762,-1.04762 z "/>
<path style="color-interpolation-filters:linearRGB;fill:#5f412d;stroke-linecap:round" id="path12" d="m 7.2816,10.8612 4.1032,4.1032 c 0.197103,0.196231 0.464064,0.306156 0.742168,0.305485 h 23.746 c 0.278104,0.000671 0.545065,-0.109259 0.742063,-0.305555 l 4.1059,-4.1059 z "/>
<path style="color-interpolation-filters:linearRGB;fill:#b07954" id="path10" d="m 7.9365,2 c -0.57856,5.73e-05 -1.04756,0.46906 -1.04762,1.04762 v 6.81225 c 0,0.652986 0.394632,1.21949 1.04762,1.21949 h 32.127 c 0.652987,0 1.04762,-0.566508 1.04762,-1.21949 v -6.81225 c -5.7e-05,-0.578559 -0.46906,-1.04756 -1.04762,-1.04762 h -5.5873 c -0.578559,5.73e-05 -1.04756,0.46906 -1.04762,1.04762 v 1.74603 h -4.88889 v -1.74603 c -5.7e-05,-0.578559 -0.469059,-1.04756 -1.04762,-1.04762 h -6.98413 c -0.578559,5.73e-05 -1.04756,0.46906 -1.04762,1.04762 v 1.74603 h -4.88889 v -1.74603 c -5.7e-05,-0.578559 -0.469059,-1.04756 -1.04762,-1.04762 Z "/>
</g>
</svg>

<svg width="48" version="1.1" xmlns="http://www.w3.org/2000/svg" height="48" xmlns:xlink="http://www.w3.org/1999/xlink">
<defs>
<linearGradient id="linearGradient1">
<stop offset="0" style="stop-color:#6d4b36"/>
<stop offset="1" style="stop-color:#4c3424"/>
</linearGradient>
<linearGradient id="linearGradient2">
<stop offset="0" style="stop-color:#b68363"/>
<stop offset="1" style="stop-color:#885e3f"/>
</linearGradient>
<linearGradient id="linearGradient8">
<stop offset="0" style="stop-color:#7e543a"/>
<stop offset="1" style="stop-color:#5a3e2a"/>
</linearGradient>
<linearGradient xlink:href="#linearGradient8" id="linearGradient9" y1="37.96827" x1="8.28568" y2="37.96827" x2="39.71422" gradientUnits="userSpaceOnUse"/>
<linearGradient xlink:href="#linearGradient2" id="linearGradient7" y1="42.857159" x1="4.0952802" y2="42.857159" x2="43.904819" gradientUnits="userSpaceOnUse"/>
<linearGradient xlink:href="#linearGradient1" id="linearGradient4" y1="13.064159" x1="7.2803345" y2="13.064159" x2="40.719666" gradientUnits="userSpaceOnUse"/>
<linearGradient xlink:href="#linearGradient2" id="linearGradient5" y1="6.53968" x1="6.8888798" y2="6.53968" x2="41.111118" gradientUnits="userSpaceOnUse"/>
<linearGradient xlink:href="#linearGradient2" id="linearGradient3" y1="25.2222" x1="8.9826557" y2="25.2222" x2="39.017383" gradientUnits="userSpaceOnUse"/>
</defs>
<path style="fill:url(#linearGradient3)" d="m 11.879,14.2222 v 17.1711 l -2.7448,3.2411 c -0.420019,0.698224 0.08275,1.58762 0.897569,1.5878 h 27.9365 c 0.814821,0 1.31759,-0.889574 0.897569,-1.5878 l -2.7448,-3.2411 v -17.1711 Z "/>
<path style="color-interpolation-filters:linearRGB;fill:url(#linearGradient9)" d="m 9.3333,34.127 c -0.578559,0 -1.04756,0.46906 -1.04762,1.04762 v 5.5873 c 0,0.578559 0.46906,1.04756 1.04762,1.04762 h 29.3333 c 0.578559,0 1.04756,-0.46906 1.04762,-1.04762 v -5.5873 C 39.714162,34.596061 39.24516,34.12706 38.6666,34.127 Z"/>
<abduction-overlay/>
<path style="fill:url(#linearGradient7)" d="m 5.1429,39.7143 c -0.57856,0 -1.04756,0.469059 -1.04762,1.04762 v 4.19048 c 0,0.578559 0.469059,1.04756 1.04762,1.04762 h 37.7143 c 0.578559,0 1.04756,-0.46906 1.04762,-1.04762 v -4.19048 c 0,-0.57856 -0.46906,-1.04756 -1.04762,-1.04762 z"/>
<path style="fill:url(#linearGradient4)" d="m 7.2803,10.8612 4.1032,4.1032 c 0.197103,0.196231 0.464064,0.306156 0.742168,0.305485 h 23.746 c 0.278104,0 0.545066,-0.109259 0.742063,-0.305555 l 4.1059,-4.1059 z "/>
<path style="color-interpolation-filters:linearRGB;fill:url(#linearGradient5)" d="M 7.9365,2 C 7.35794,2 6.88894,2.46906 6.88888,3.04762 v 6.81225 c 0,0.652986 0.394632,1.21949 1.04762,1.21949 h 32.127 c 0.652987,0 1.04762,-0.566508 1.04762,-1.21949 V 3.04762 C 41.111063,2.469061 40.64206,2 40.0635,2 h -5.5873 c -0.578559,0 -1.04756,0.46906 -1.04762,1.04762 V 4.79365 H 28.53969 V 3.04762 C 28.539633,2.469061 28.070631,2 27.49207,2 h -6.98413 c -0.578559,0 -1.04756,0.46906 -1.04762,1.04762 V 4.79365 H 14.57143 V 3.04762 C 14.571373,2.469061 14.102371,2 13.52381,2 Z"/>
</svg>
